dist/svgs/devui-icons/op/health.svg

<svg xmlns="http://www.w3.org/2000/svg" viewBox="0 0 16 16"><path d="M5 4V1h2v3h2V1h2v3h1v11H4V4h1zm8 0h1a1 1 0 011 1v9a1 1 0 01-1 1h-1V4zM3 4v11H2a1 1 0 01-1-1V5a1 1 0 011-1h1zm4 4H5v2h2v2h2v-2h2V8H9V6H7v2zM5 1h6v2H5V1z"/></svg>

<?xml version="1.0" encoding="UTF-8"?>
<svg width="16px" height="16px" viewBox="0 0 16 16" version="1.1" xmlns="http://www.w3.org/2000/svg" xmlns:xlink="http://www.w3.org/1999/xlink">
    <title>操作/健康度</title>
    <desc>Created with Sketch.</desc>
    <g id="操作/健康度" stroke="none" stroke-width="1" fill="none" fill-rule="evenodd">
        <g id="健康度">
            <path d="M5,4 L5,1 L7,1 L7,4 L9,4 L9,1 L11,1 L11,4 L12,4 L12,15 L4,15 L4,4 L5,4 Z M13,4 L14,4 C14.5522847,4 15,4.44771525 15,5 L15,14 C15,14.5522847 14.5522847,15 14,15 L13,15 L13,4 Z M3,4 L3,15 L2,15 C1.44771525,15 1,14.5522847 1,14 L1,5 C1,4.44771525 1.44771525,4 2,4 L3,4 Z M7,8 L5,8 L5,10 L7,10 L7,12 L9,12 L9,10 L11,10 L11,8 L9,8 L9,6 L7,6 L7,8 Z M5,1 L11,1 L11,3 L5,3 L5,1 Z" id="形状" fill="#293040" fill-rule="nonzero"></path>
        </g>
    </g>
</svg>
